%
(CANARD_HALVES_MACHINEING_ASM1)
(DATE=DD-MM-YY - 18-10-09 TIME=HH:MM - 12:03)
(MCX FILE - C:\DOCUMENTS AND SETTINGS\UNKNOWN\DESKTOP\PSAS\ROLLCONTROL\CANARD_HALVES_MACHINEING_ASM.MCX)
(NC FILE - C:\DOCUMENTS AND SETTINGS\UNKNOWN\DESKTOP\PSAS\ROLLCONTROL\CANARD_HALF_1_NC\CANARD_HALVES_MACHINEING_ASM1.NC)
(MATERIAL - ALUMINUM INCH - 2024)
( T2 |  1/8 FLAT ENDMILL | H2 )
G20
G0 G17 G40 G49 G80 G90
G0 G90 G54 X.3691 Y1.3862 S2000 M3
Z-.09
G1 X.4163 Z-.0925 F1.
X-.0013 Z-.1144
X.4163 Z-.1362
X-.0013 Z-.1581
X.4163 Z-.18
X.4263 Y1.3963 F4.
X.1
X-.0113
Y1.3038
X.1
X.4263
Y1.3963
X.4575 Y1.4275
F1.
X.1 F4.
X-.0425
Y1.2725
X.1
X.4575
Y1.4275
G0 Z0.
X.424 Y1.0288
Z-.09
G2 X.4336 Y1.2788 Z-.1106 I.0048 J.125
X.424 Y1.0288 Z-.1312 I-.0048 J-.125
X.3411 Y1.0646 Z-.136 I.0048 J.125
G1 X.4128 Y1.1375
X.4926
X.4134 Y1.2688
X.4128 Y1.1375
X.35 Y1.075
X.6008
X.3519 Y1.5063
X.35 Y1.075
X.2938 Y1.0188
X.6983
X.3159 Y1.6812
X.2938
Y1.49
Y1.21
Y1.0188
X.2625 Y1.49
F1.
Y1.21 F4.
Y.9875
X.7524
X.3339 Y1.7125
X.2625
Y1.49
G0 Z0.
X.0375 Y1.1788
Z-.1
G1 Z-.22 F1.
Y1.21 F4.
Y1.49
Y1.5213
G0 Z0.
X1.4342 Y1.4639
Z-.09
G1 X1.3942 Z-.0921 F1.
X1.9533 Z-.1214
X1.3942 Z-.1507
X1.9533 Z-.18
X1.9633 Y1.4538 F4.
Y1.5462
X1.7104
X1.3842
Y1.4538
X1.7104
X1.9633
X1.9945 Y1.4225
F1.
Y1.5775 F4.
X1.7104
X1.3529
Y1.4225
X1.7104
X1.9945
G0 Z0.
X1.4883 Y1.569
Z-.09
G2 X1.2751 Y1.6998 Z-.1106 I-.1066 J.0654
X1.4883 Y1.569 Z-.1312 I.1066 J-.0654
X1.4165 Y1.5143 Z-.136 I-.1066 J.0654
G1 X1.3971 Y1.5813
X1.3976 Y1.7
X1.325
X1.3971 Y1.5813
X1.396 Y1.581
X1.4552 Y1.36
X1.4595 Y1.344
X1.4585 Y1.3438
X1.4604 Y1.7688
X1.2132
X1.4585 Y1.3438
X1.4595 Y1.344
X1.4552 Y1.36
X1.5167
Y1.64
Y1.8313
X1.1122
X1.4946 Y1.1688
X1.5167
Y1.36
X1.5479
F1.
Y1.64 F4.
Y1.8625
X1.0581
X1.4765 Y1.1375
X1.5479
Y1.36
G0 Z0.
X1.7729 Y1.6712
Z-.1
G1 Z-.22 F1.
Y1.64 F4.
Y1.36
Y1.3288
G0 Z0.
M5
G91 G28 Z0.
G28 X0. Y0.
M30
%
