%
(CANARD_HALVES_1_MACHINEING_ASM_1)
(DATE=DD-MM-YY - 18-10-09 TIME=HH:MM - 13:26)
(MCX FILE - C:\DOCUMENTS AND SETTINGS\UNKNOWN\DESKTOP\PSAS\ROLLCONTROL\CANARD_HALVES_1_MACHINEING_ASM.MCX)
(NC FILE - C:\DOCUMENTS AND SETTINGS\UNKNOWN\DESKTOP\PSAS\ROLLCONTROL\CANARD_HALF_11_NC\CANARD_HALVES_1_MACHINEING_ASM_1.NC)
(MATERIAL - ALUMINUM INCH - 2024)
( T2 |  1/8 FLAT ENDMILL | H2 )
G20
G0 G17 G40 G49 G80 G90

G0 G90 G54 X.169 Y-1.3564 S2000 M3

Z-.09
G1 X.0403 Z-.0967 F1.
X.4375 Z-.1176
X.0403 Z-.1384
X.4375 Z-.1592
X.0403 Z-.18
X.1172 Y-1.355 F2.
X.3606
Y-1.3487
X.1172
Y-1.355
Y-1.35
X.1
Y-1.4175
X.4475
Y-1.2825
X.1
X.0303
Y-1.4175
X.1
X.4575 Y-1.2725
F1.
X.1 F2.
X.0203
Y-1.4275
X.1
X.4575
Y-1.2725
G0 Z0.
X.4967 Y-1.1225
Z-.09
G2 X.3183 Y-1.2975 Z-.1106 I-.0892 J-.0875
X.4967 Y-1.1225 Z-.1312 I.0892 J.0875
X.5324 Y-1.2054 Z-.136 I-.0892 J-.0875
G1 X.4412 Y-1.2088
X.4547 Y-1.1587
X.4412 Y-1.165
Y-1.2088
X.4312 Y-1.2061
X.4302 Y-1.21
X.3552 Y-1.49
X.3301 Y-1.5837
X.3643 Y-1.465
X.5771 Y-1.0962
X.606 Y-1.0713
X.3538 Y-1.0775
X.36 Y-1.0962
Y-1.4775
X.3302 Y-1.5838
X.3552 Y-1.49
X.2725
Y-1.7025
X.328
X.7349 Y-.9975
X.2725
Y-1.21
Y-1.49
X.7522 Y-.9875
F1.
X.2625 F2.
Y-1.21
Y-1.49
Y-1.7125
X.3338
X.7522 Y-.9875
G0 Z0.
X.0375 Y-1.49
G1 Z-.22 F1.
Y-1.21 F2.
G0 Z0.
X1.5044 Y-1.4936
Z-.09
G1 X1.9969 Z-.1158 F1.
X1.3845 Z-.1479
X1.9969 Z-.18
X1.7265 Y-1.4988 F2.
X1.92 Y-1.505
Y-1.4988
X1.4614
X1.7265
Y-1.5
X1.722
Y-1.4325
X1.3745
Y-1.5675
X1.722
X2.0069
Y-1.4325
X1.722
Y-1.5775
F1.
X2.0169 F2.
Y-1.4225
X1.722
X1.3645
Y-1.5775
X1.722
G0 Z0.
X1.3737 Y-1.7054
Z-.09
G1 X1.5395 Z-.0987 F1.
X1.1835 Z-.1173
X1.5395 Z-.136
X1.368 Y-1.69 F2.
X1.3807 Y-1.6838
Y-1.64
X1.368 Y-1.69
X1.2167 Y-1.7775
X1.4682 Y-1.7713
X1.462 Y-1.7525
Y-1.4025
X1.485 Y-1.29
X1.4656 Y-1.3713
X1.2456 Y-1.7525
X1.2167 Y-1.7775
X1.0871 Y-1.8525
X1.5495
Y-1.64
Y-1.36
Y-1.1475
X1.494
X1.0871 Y-1.8525
X1.0698 Y-1.8625
F1.
X1.5595 F2.
Y-1.64
Y-1.36
Y-1.1375
X1.4882
X1.0698 Y-1.8625
G0 Z0.
X1.7845 Y-1.36
G1 Z-.22 F1.
Y-1.64 F2.
G0 Z0.
M5
G91 G28 Z0.
G28 X0. Y0.
M30
%
